src/assets/icons/coffee.svg

<svg xmlns="http://www.w3.org/2000/svg" width="72" height="72" viewBox="0 0 72 72">
  <g fill="none" fill-rule="evenodd">
    <path fill="#000" d="M68.983978,25.4970078 C68.7733135,32.8714049 61.0672106,39.121953 50.6920877,40.9078974 C48.1573187,37.125822 44.3199624,33.5857449 39.5047808,30.9166462 C38.6069628,30.4189775 37.7014801,29.9661841 36.7929149,29.5578901 L37.0610425,29.5554309 L37.0610425,29.5554309 C45.059824,29.4158117 47.3006618,26.5006407 52.9975222,25.7767255 C56.7933812,25.2943756 62.1221998,25.2011363 68.983978,25.4970078 Z M68.9863591,24.9975631 C68.9892524,25.1633238 68.9883539,25.3285616 68.9837173,25.4932394 L68.9950853,25.497487 C63.621842,23.2575885 58.2689598,22.184179 52.9364387,22.2772585 C44.9376572,22.4168778 42.6968194,25.3320487 36.999959,26.055964 C33.5476283,26.4946608 28.8272506,26.6114897 22.8388259,26.4064506 L22.1682334,26.3821763 C22.057762,26.3780193 21.9648373,26.464204 21.9606802,26.5746754 C21.957483,26.6596399 22.0083102,26.737353 22.0874334,26.7684769 L22.183293,26.8058089 C21.806656,26.8402696 21.4349392,26.8840846 21.068617,26.9372151 C21.0254422,26.5729657 21.0001364,26.2057577 20.9936697,25.8352786 C20.8394505,17.0000685 31.4579607,9.6501865 44.7107759,9.41885775 C57.9635911,9.187529 68.8321399,16.162353 68.9863591,24.9975631 Z"/>
    <path fill="#000" d="M31,21.9105615 C31.1657859,21.9105615 31.3309829,21.9143437 31.4955547,21.9218537 L31.5,21.9105615 C29.1666667,27.2438948 28,32.5772282 28,37.9105615 C28,45.9105615 30.8756189,48.2019347 31.5,53.9105615 C31.8783786,57.3700227 31.9128077,62.0917205 31.6032874,68.0756547 L31.5673134,68.7457214 C31.5612289,68.8561034 31.6457788,68.9505181 31.7561608,68.9566025 C31.8410565,68.9612821 31.9196449,68.911819 31.952145,68.833251 C32.0544554,68.5859184 32.1341692,68.3893838 32.1912863,68.2436471 C34.0637621,63.4659519 35,58.6882567 35,53.9105615 C35,45.9105615 32.1243811,43.6191883 31.5,37.9105615 C31.0839704,34.1068625 31.0837461,28.7772282 31.499327,21.9216587 C40.1049577,22.3179054 47,32.9064159 47,45.9105615 C47,59.1653955 39.836556,69.9105615 31,69.9105615 C22.163444,69.9105615 15,59.1653955 15,45.9105615 C15,32.6557275 22.163444,21.9105615 31,21.9105615 Z" transform="rotate(-61 31 45.91)"/>
  </g>
</svg>

<svg xmlns="http://www.w3.org/2000/svg" viewBox="0 0 72 72">
    <g fill="#000" fill-rule="evenodd">
        <path d="M68.984 25.497c-.21 7.374-7.917 13.625-18.292 15.41-2.535-3.781-6.372-7.321-11.187-9.99a36.213 36.213 0 00-2.712-1.36l.268-.002c7.999-.14 10.24-3.054 15.937-3.778 3.795-.483 9.124-.576 15.986-.28zm.002-.5c.003.166.002.332-.002.496l.011.004c-5.373-2.24-10.726-3.313-16.059-3.22-7.998.14-10.24 3.055-15.936 3.779-3.452.439-8.173.555-14.161.35l-.67-.024a.2.2 0 00-.082.386l.096.038c-.376.034-.748.078-1.114.131a10.983 10.983 0 01-.075-1.102C20.839 17 31.458 9.65 44.71 9.42c13.253-.231 24.121 6.743 24.275 15.579z"/>
        <path d="M10.01 34.275c.08-.145.163-.288.25-.428l-.008-.01c3.533 4.627 7.632 8.233 12.297 10.819 6.997 3.878 10.395 2.474 15.69 4.695 3.21 1.347 7.356 3.606 12.44 6.777l.569.357a.2.2 0 00.263-.294c-.167-.21-.3-.375-.4-.495-3.27-3.954-6.996-7.09-11.174-9.406-6.997-3.878-10.395-2.474-15.691-4.696-3.529-1.48-8.19-4.063-13.985-7.75 4.52-7.335 17.123-8.232 28.496-1.928 11.593 6.426 17.518 17.901 13.234 25.63-4.284 7.728-17.155 8.784-28.747 2.358-11.593-6.426-17.518-17.9-13.234-25.63z"/>
    </g>
</svg>
